X: 1
T:Gan Ainm
R:jig
M:6/8
L:1/8
K:Dmix
AFA d2A|dfa gfe|fed e2d|B=cG EFG|!
AFA d2A|dfa gfe|fed =cAG|Ad^c d3:|!
|:~A3 ~G3|AFD FED|E2=c cBc|~G3 BAG|!
~A3 ~G3|Add efg|fed =cAG|1 Ad^c d3:|2 Ad^c d2e||!
|:f2d efg|aAB ^cde|f2d efg|age d2e|!
~f3 ~g3|AdB =cde|fed =cAG|1 Ad^c d2e:|2 Ad^c d3||!
"variations"
|:AFA d2A|dfa gfe|fed e2d|=cAG EFG|!
AFA d2A|dfa gfe|fed ^cAG|Ad^c dFG:|!
|:~A3 ~G3|A2D FED|E2=c cBc|GEG =cGE|!
~A3 GFG|Add efg|fed ^cAG|1 Ad^c dFG:|2 Ad^c d2e||!
|:fed efg|AdB =cAG|fed efg|efe d2e|!
fef gfg|AdB =cde|fed ^cAG|1 Ad^c d2e:|2 Ad^c dFG||!
